X:2
T:Barney Brallaghan
Z: id:dc-slipjig-21
M:9/8
L:1/8
K:D Major
F2A ABA ABA|F2A ABA d2f|F2A ABA ABA|B2e e2d cBA:|!
f2a f2a fed|f2a f2a gfe|f2a f2a fed|efe e2d cBA:|!
f3 a3 d3|e2f ged cBA|f3 e3 d3|B3 A2G FED:|!

